images/icons/PBS-component_image.svg

<?xml version="1.0" encoding="UTF-8" standalone="no"?>
<svg width="256px" height="256px" viewBox="0 0 256 256" version="1.1" xmlns="http://www.w3.org/2000/svg" xmlns:xlink="http://www.w3.org/1999/xlink">
    <!-- Generator: Sketch 39.1 (31720) - http://www.bohemiancoding.com/sketch -->
    <title>PBS-component_image</title>
    <desc>Created with Sketch.</desc>
    <defs></defs>
    <g id="Page-1" stroke="none" stroke-width="1" fill="none" fill-rule="evenodd">
        <g id="PBS-component_image" fill="#222222">
            <path d="M39.999615,43 C38.8952581,43 38,43.8874333 38,44.999615 L38,53 L38,203 L38,211.000385 C38,212.104742 38.8874333,213 39.999615,213 L48,213 L213,213 L221.000385,213 C222.104742,213 223,212.112567 223,211.000385 L223,203 L223,53 L223,44.999615 C223,43.8952581 222.112567,43 221.000385,43 L213,43 L48,43 L39.999615,43 Z M55.0068304,58 C53.8984886,58 53,58.8969977 53,59.993535 L53,66.2352941 L53,189.764706 L53,196.006465 C53,197.107464 53.8966333,198 55.0068304,198 L61.3783784,198 L199.621622,198 L205.99317,198 C207.101511,198 208,197.103002 208,196.006465 L208,189.764706 L208,66.2352941 L208,59.993535 C208,58.892536 207.103367,58 205.99317,58 L199.621622,58 L61.3783784,58 L55.0068304,58 Z" id="Combined-Shape"></path>
            <path d="M49,177.00406 L89.3969466,145.619441 L125.259541,163.376529 L171.015267,94 L211,131.991908 L210.587786,196.825926 C210.587786,196.825926 63.3998944,197.564176 50.648855,196.000015" id="Path-26" stroke="#222222" stroke-width="10"></path>
            <ellipse id="Oval" cx="89" cy="94.5" rx="20" ry="20.5"></ellipse>
        </g>
    </g>
</svg>

<svg width="256" height="256" viewBox="0 0 256 256" xmlns="http://www.w3.org/2000/svg"><title>PBS-component_image</title><g fill="#222" fill-rule="evenodd"><path d="M40 43c-1.105 0-2 .887-2 2v166c0 1.105.887 2 2 2h181c1.105 0 2-.887 2-2V45c0-1.105-.887-2-2-2H40zm15.007 15A2.003 2.003 0 0 0 53 59.994v136.012c0 1.101.897 1.994 2.007 1.994H205.993a2.003 2.003 0 0 0 2.007-1.994V59.994A1.999 1.999 0 0 0 205.993 58H55.007z"/><path d="M49 177.004l40.397-31.385 35.863 17.758L171.015 94 211 131.992l-.412 64.834S63.4 197.564 50.648 196" stroke="#222" stroke-width="10"/><ellipse cx="89" cy="94.5" rx="20" ry="20.5"/></g></svg>
